packages/calcite-ui-icons/icons/directional-navigation-16.svg

<?xml version="1.0" encoding="UTF-8"?><svg id="icons" xmlns="http://www.w3.org/2000/svg" viewBox="0 0 16 16"><defs><style>.cls-1{fill:none;}</style></defs><path d="M10.82117,6.08728l-1.00049.57678-1.32068-.7627-1.20361.69507-1.00043-.57672,2.20404-1.27252,2.32117,1.34009ZM12.80084,9.76965l2.19016-1.26965-2.16983-1.25793-1.00061.57684,1.17944.68109-1.19971.69281,1.00055.57684ZM1,2v5.39331c.07764-.07013.15735-.13867.25-.19214l.75-.43292v-3.76825h13v3.76819l.75.43298c.09265.05347.17236.12201.25.19214V2H1ZM15,10.23175v3.76825H2v-3.76831l-.75-.43286c-.09265-.05347-.17236-.12201-.25-.19214v5.39331h15v-5.39331c-.07764.07013-.15735.13867-.25.19214l-.75.43292ZM4.2959,7.17444l-2.2959,1.32556,2.31622,1.33728,1.00061-.57684-1.31683-.76044,1.29651-.74872-1.00061-.57684ZM8.5,11.09863l-1.18329-.68335-1.00043.57672,2.18372,1.26074,2.30078-1.32837-1.00037-.57672-1.30042.75098Z"/><rect class="cls-1" x="0" width="16" height="16"/></svg>

<svg xmlns="http://www.w3.org/2000/svg" viewBox="0 0 16 16"><path d="M10.821 6.087l-1 .577L8.5 5.901l-1.204.695-1-.576L8.5 4.747l2.321 1.34zm1.98 3.683l2.19-1.27-2.17-1.258-1 .577L13 8.5l-1.2.693 1 .577zM1 2v5.393c.078-.07.157-.138.25-.192L2 6.768V3h13v3.768l.75.433c.093.054.172.122.25.192V2H1zm14 8.232V14H2v-3.768l-.75-.433A1.487 1.487 0 0 1 1 9.607V15h15V9.607c-.078.07-.157.138-.25.192l-.75.433zM4.296 7.174L2 8.5l2.316 1.337 1-.577L4 8.5l1.297-.749-1.001-.577zM8.5 11.1l-1.183-.684-1 .577 2.183 1.26 2.3-1.328-1-.576-1.3.75z"/><path fill="none" d="M0 0h16v16H0z"/></svg>
